X: 22
P: Longways for &c.
M: 6/8
L: 1/8
K: G
V: 1
|: d |\
e2c cde | d2B B>cd | cBA BAG | A2D D2A |\
V: 2 clef=bass middle=d
z |\
|: B |\
c3 A3 | B3 G3 | A3 G3 | d3 f3 |\
g3 zzg | f3 d3 | g2B c2d | G3- G2 :|

